assets/K_hearts.svg

<svg width="822" height="1134" fill="none" xmlns="http://www.w3.org/2000/svg"><rect y="12" width="822" height="1122" rx="50" fill="#F1F7EE"/><path d="M272.656 1039.2v58.3c0 1-.5 1.5-1.5 1.5h-7.3c-1 0-1.766-.4-2.3-1.2l-33.9-50.1v43.4h8.3c1 0 1.5.5 1.5 1.5v4.9c0 1-.5 1.5-1.5 1.5h-22.3c-1 0-1.5-.5-1.5-1.5v-4.9c0-1 .5-1.5 1.5-1.5h5.3v-51.9h-5.3c-1 0-1.5-.5-1.5-1.5v-5.1c0-1 .5-1.5 1.5-1.5h14.7c.934 0 1.7.43 2.3 1.3l33.3 50.6v-43.8h-5.3c-1 0-1.5-.5-1.5-1.5v-5.1c0-1 .5-1.5 1.5-1.5h19.3c1 0 1.5.5 1.5 1.5v5.1c0 1-.5 1.5-1.5 1.5h-5.3Zm36.317 61c-7.934 0-13.767-2.3-17.5-6.9-3.667-4.67-5.5-10.8-5.5-18.4 0-7.67 1.966-14 5.9-19 3.933-5 9.6-7.5 17-7.5 3.666 0 6.8.7 9.4 2.1 2.666 1.33 4.7 3.17 6.1 5.5 2.666 4.53 4 9.77 4 15.7 0 2.8-.134 4.33-.4 4.6-.267.27-.767.4-1.5.4h-29.4c.333 4.8 1.5 8.53 3.5 11.2 2.066 2.6 5.6 3.9 10.6 3.9 3.666 0 7.433-.87 11.3-2.6.933-.47 1.6-.2 2 .8l1.9 4.6c.333.8.033 1.47-.9 2-4.4 2.4-9.9 3.6-16.5 3.6Zm-11.9-30.9h20.8c.133-8.33-3.134-12.5-9.8-12.5-3.934 0-6.734 1.27-8.4 3.8-1.6 2.47-2.467 5.37-2.6 8.7Zm50.825-18.3 9.1 35.7 9.9-35.8c.267-.93.9-1.4 1.9-1.4h8c1 0 1.634.47 1.9 1.4l10.2 36 8.9-29.2h-4.8c-1 0-1.5-.5-1.5-1.5v-5.2c0-1 .5-1.5 1.5-1.5h12.8c.8 0 1.334.23 1.6.7.334.4.5.77.5 1.1 0 .33-.033.63-.1.9l-13.8 45.4c-.266.93-.9 1.4-1.9 1.4h-9c-1 0-1.633-.5-1.9-1.5l-9.5-35.3-9.9 35.4c-.266.93-.9 1.4-1.9 1.4h-9c-1 0-1.633-.47-1.9-1.4l-10.9-39.9h-5.2c-1 0-1.5-.5-1.5-1.5v-5.2c0-1 .5-1.5 1.5-1.5h13.1c1 0 1.634.5 1.9 1.5Zm101.645 7.1c1.133-2.67 2.967-4.93 5.5-6.8 2.533-1.93 5.3-2.9 8.3-2.9 3 0 5.3.27 6.9.8.8.27 1.2.87 1.2 1.8v13.5c0 1-.5 1.5-1.5 1.5h-6.5c-1 0-1.467-.5-1.4-1.5l.4-5.8c-.333-.07-.9-.1-1.7-.1-3.067 0-5.6 1.27-7.6 3.8-2 2.47-3 5.8-3 10v18.7h11c1 0 1.5.5 1.5 1.5v4.9c0 1-.5 1.5-1.5 1.5h-27.5c-1 0-1.5-.5-1.5-1.5v-4.9c0-1 .5-1.5 1.5-1.5h5.3v-33.4h-5.4c-1 0-1.5-.5-1.5-1.5v-5.2c0-1 .5-1.5 1.5-1.5h13.2c.933 0 1.5.5 1.7 1.5l1.1 7.1Zm76.117 33h4.4c1 0 1.5.5 1.5 1.5v4.9c0 1-.5 1.5-1.5 1.5h-11.2c-.8 0-1.3-.5-1.5-1.5l-.9-5.6c-4.267 5.53-9.867 8.3-16.8 8.3-10.8 0-16.2-5.67-16.2-17v-25.5h-5.3c-1 0-1.5-.5-1.5-1.5v-5.2c0-1 .5-1.5 1.5-1.5h15c1 0 1.5.5 1.5 1.5v29.2c0 4 .5 6.87 1.5 8.6 1.067 1.67 3.267 2.5 6.6 2.5 3.4 0 6.2-1 8.4-3s3.3-4.27 3.3-6.8v-23.8h-6.3c-1 0-1.5-.5-1.5-1.5v-5.2c0-1 .5-1.5 1.5-1.5h16c1 0 1.5.5 1.5 1.5v40.1Zm29.463-65.2v65.2h6.3c1 0 1.5.5 1.5 1.5v4.9c0 1-.5 1.5-1.5 1.5h-23.8c-1 0-1.5-.5-1.5-1.5v-4.9c0-1 .5-1.5 1.5-1.5h6.3v-58.5h-5.4c-1 0-1.5-.5-1.5-1.5v-5.2c0-1 .5-1.5 1.5-1.5h15.1c1 0 1.5.5 1.5 1.5Zm35.295 74.3c-7.933 0-13.767-2.3-17.5-6.9-3.667-4.67-5.5-10.8-5.5-18.4 0-7.67 1.967-14 5.9-19 3.933-5 9.6-7.5 17-7.5 3.667 0 6.8.7 9.4 2.1 2.667 1.33 4.7 3.17 6.1 5.5 2.667 4.53 4 9.77 4 15.7 0 2.8-.133 4.33-.4 4.6-.267.27-.767.4-1.5.4h-29.4c.333 4.8 1.5 8.53 3.5 11.2 2.067 2.6 5.6 3.9 10.6 3.9 3.667 0 7.433-.87 11.3-2.6.933-.47 1.6-.2 2 .8l1.9 4.6c.333.8.033 1.47-.9 2-4.4 2.4-9.9 3.6-16.5 3.6Zm-11.9-30.9h20.8c.133-8.33-3.133-12.5-9.8-12.5-3.933 0-6.733 1.27-8.4 3.8-1.6 2.47-2.467 5.37-2.6 8.7ZM96.39 117.6v64.2h15.601l55.8-64.2h-15.9c-3 0-4.5-1.5-4.5-4.5V97.8c0-3 1.5-4.5 4.5-4.5h61.2c3 0 4.5 1.5 4.5 4.5v15.9c0 3-1.5 4.5-4.5 4.5h-15.3l-59.4 69.3 59.7 85.8h19.5c3 0 4.5 1.5 4.5 4.5v14.7c0 3-1.5 4.5-4.5 4.5h-38.4c-3 0-5.4-1.2-7.2-3.6l-60.3-87h-15.3v66.9h15.9c3 0 4.5 1.5 4.5 4.5v14.7c0 3-1.5 4.5-4.5 4.5h-65.4c-3 0-4.5-1.5-4.5-4.5v-14.7c0-3 1.5-4.5 4.5-4.5h15.9V117.6h-15.9c-3 0-4.5-1.5-4.5-4.5V97.8c0-3 1.5-4.5 4.5-4.5h65.4c3 0 4.5 1.5 4.5 4.5v15.3c0 3-1.5 4.5-4.5 4.5h-15.9ZM366 474.8v85.6h20.8l74.4-85.6H440c-4 0-6-2-6-6v-20.4c0-4 2-6 6-6h81.6c4 0 6 2 6 6v21.2c0 4-2 6-6 6h-20.4L422 568l79.6 114.4h26c4 0 6 2 6 6V708c0 4-2 6-6 6h-51.2c-4 0-7.2-1.6-9.6-4.8l-80.4-116H366v89.2h21.2c4 0 6 2 6 6V708c0 4-2 6-6 6H300c-4 0-6-2-6-6v-19.6c0-4 2-6 6-6h21.2V474.8H300c-4 0-6-2-6-6v-20.4c0-4 2-6 6-6h87.2c4 0 6 2 6 6v20.4c0 4-2 6-6 6H366Z" fill="#000"/><path d="m346.492 352.908 28.663 51.219c30.873-9.103 50.551-7.778 87.639 0l28.662-51.218-38.218 27.926L441.377 330l-22.403 46.745L396.571 330l-11.861 50.834-38.218-27.926ZM172.289 342.69a26.362 26.362 0 0 0-28.682-5.691 26.3 26.3 0 0 0-8.537 5.691l-5.071 5.057-5.071-5.057a26.356 26.356 0 0 0-18.61-7.687 26.355 26.355 0 0 0-18.61 7.687A26.21 26.21 0 0 0 80 361.249a26.21 26.21 0 0 0 7.708 18.559l5.071 5.058 33.689 33.597a5 5 0 0 0 7.061 0l33.689-33.597 5.071-5.058a26.222 26.222 0 0 0 5.707-8.514 26.184 26.184 0 0 0-5.707-28.604Z" fill="#F7081D"/><mask id="a" style="mask-type:alpha" maskUnits="userSpaceOnUse" x="130" y="335" width="50" height="85"><path fill="#D9D9D9" d="M130 335h50v84.916h-50z"/></mask><g mask="url(#a)"><path d="M172.289 342.69a26.362 26.362 0 0 0-28.682-5.691 26.3 26.3 0 0 0-8.537 5.691l-5.071 5.057-5.071-5.057a26.356 26.356 0 0 0-18.61-7.687 26.355 26.355 0 0 0-18.61 7.687A26.21 26.21 0 0 0 80 361.249a26.21 26.21 0 0 0 7.708 18.559l5.071 5.058 33.689 33.597a5 5 0 0 0 7.061 0l33.689-33.597 5.071-5.058a26.222 26.222 0 0 0 5.707-8.514 26.184 26.184 0 0 0-5.707-28.604Z" fill="#DC1021"/></g></svg>

<svg width="822" height="1134" viewBox="0 0 822 1134" fill="none" xmlns="http://www.w3.org/2000/svg">
<rect y="12" width="822" height="1122" rx="50" fill="#F1F7EE"/>
<path d="M272.656 1039.2V1097.5C272.656 1098.5 272.156 1099 271.156 1099H263.856C262.856 1099 262.09 1098.6 261.556 1097.8L227.656 1047.7V1091.1H235.956C236.956 1091.1 237.456 1091.6 237.456 1092.6V1097.5C237.456 1098.5 236.956 1099 235.956 1099H213.656C212.656 1099 212.156 1098.5 212.156 1097.5V1092.6C212.156 1091.6 212.656 1091.1 213.656 1091.1H218.956V1039.2H213.656C212.656 1039.2 212.156 1038.7 212.156 1037.7V1032.6C212.156 1031.6 212.656 1031.1 213.656 1031.1H228.356C229.29 1031.1 230.056 1031.53 230.656 1032.4L263.956 1083V1039.2H258.656C257.656 1039.2 257.156 1038.7 257.156 1037.7V1032.6C257.156 1031.6 257.656 1031.1 258.656 1031.1H277.956C278.956 1031.1 279.456 1031.6 279.456 1032.6V1037.7C279.456 1038.7 278.956 1039.2 277.956 1039.2H272.656ZM308.973 1100.2C301.039 1100.2 295.206 1097.9 291.473 1093.3C287.806 1088.63 285.973 1082.5 285.973 1074.9C285.973 1067.23 287.939 1060.9 291.873 1055.9C295.806 1050.9 301.473 1048.4 308.873 1048.4C312.539 1048.4 315.673 1049.1 318.273 1050.5C320.939 1051.83 322.973 1053.67 324.373 1056C327.039 1060.53 328.373 1065.77 328.373 1071.7C328.373 1074.5 328.239 1076.03 327.973 1076.3C327.706 1076.57 327.206 1076.7 326.473 1076.7H297.073C297.406 1081.5 298.573 1085.23 300.573 1087.9C302.639 1090.5 306.173 1091.8 311.173 1091.8C314.839 1091.8 318.606 1090.93 322.473 1089.2C323.406 1088.73 324.073 1089 324.473 1090L326.373 1094.6C326.706 1095.4 326.406 1096.07 325.473 1096.6C321.073 1099 315.573 1100.2 308.973 1100.2ZM297.073 1069.3H317.873C318.006 1060.97 314.739 1056.8 308.073 1056.8C304.139 1056.8 301.339 1058.07 299.673 1060.6C298.073 1063.07 297.206 1065.97 297.073 1069.3ZM347.898 1051L356.998 1086.7L366.898 1050.9C367.165 1049.97 367.798 1049.5 368.798 1049.5H376.798C377.798 1049.5 378.432 1049.97 378.698 1050.9L388.898 1086.9L397.798 1057.7H392.998C391.998 1057.7 391.498 1057.2 391.498 1056.2V1051C391.498 1050 391.998 1049.5 392.998 1049.5H405.798C406.598 1049.5 407.132 1049.73 407.398 1050.2C407.732 1050.6 407.898 1050.97 407.898 1051.3C407.898 1051.63 407.865 1051.93 407.798 1052.2L393.998 1097.6C393.732 1098.53 393.098 1099 392.098 1099H383.098C382.098 1099 381.465 1098.5 381.198 1097.5L371.698 1062.2L361.798 1097.6C361.532 1098.53 360.898 1099 359.898 1099H350.898C349.898 1099 349.265 1098.53 348.998 1097.6L338.098 1057.7H332.898C331.898 1057.7 331.398 1057.2 331.398 1056.2V1051C331.398 1050 331.898 1049.5 332.898 1049.5H345.998C346.998 1049.5 347.632 1050 347.898 1051ZM449.543 1058.1C450.676 1055.43 452.51 1053.17 455.043 1051.3C457.576 1049.37 460.343 1048.4 463.343 1048.4C466.343 1048.4 468.643 1048.67 470.243 1049.2C471.043 1049.47 471.443 1050.07 471.443 1051V1064.5C471.443 1065.5 470.943 1066 469.943 1066H463.443C462.443 1066 461.976 1065.5 462.043 1064.5L462.443 1058.7C462.11 1058.63 461.543 1058.6 460.743 1058.6C457.676 1058.6 455.143 1059.87 453.143 1062.4C451.143 1064.87 450.143 1068.2 450.143 1072.4V1091.1H461.143C462.143 1091.1 462.643 1091.6 462.643 1092.6V1097.5C462.643 1098.5 462.143 1099 461.143 1099H433.643C432.643 1099 432.143 1098.5 432.143 1097.5V1092.6C432.143 1091.6 432.643 1091.1 433.643 1091.1H438.943V1057.7H433.543C432.543 1057.7 432.043 1057.2 432.043 1056.2V1051C432.043 1050 432.543 1049.5 433.543 1049.5H446.743C447.676 1049.5 448.243 1050 448.443 1051L449.543 1058.1ZM525.66 1091.1H530.06C531.06 1091.1 531.56 1091.6 531.56 1092.6V1097.5C531.56 1098.5 531.06 1099 530.06 1099H518.86C518.06 1099 517.56 1098.5 517.36 1097.5L516.46 1091.9C512.193 1097.43 506.593 1100.2 499.66 1100.2C488.86 1100.2 483.46 1094.53 483.46 1083.2V1057.7H478.16C477.16 1057.7 476.66 1057.2 476.66 1056.2V1051C476.66 1050 477.16 1049.5 478.16 1049.5H493.16C494.16 1049.5 494.66 1050 494.66 1051V1080.2C494.66 1084.2 495.16 1087.07 496.16 1088.8C497.227 1090.47 499.427 1091.3 502.76 1091.3C506.16 1091.3 508.96 1090.3 511.16 1088.3C513.36 1086.3 514.46 1084.03 514.46 1081.5V1057.7H508.16C507.16 1057.7 506.66 1057.2 506.66 1056.2V1051C506.66 1050 507.16 1049.5 508.16 1049.5H524.16C525.16 1049.5 525.66 1050 525.66 1051V1091.1ZM555.123 1025.9V1091.1H561.423C562.423 1091.1 562.923 1091.6 562.923 1092.6V1097.5C562.923 1098.5 562.423 1099 561.423 1099H537.623C536.623 1099 536.123 1098.5 536.123 1097.5V1092.6C536.123 1091.6 536.623 1091.1 537.623 1091.1H543.923V1032.6H538.523C537.523 1032.6 537.023 1032.1 537.023 1031.1V1025.9C537.023 1024.9 537.523 1024.4 538.523 1024.4H553.623C554.623 1024.4 555.123 1024.9 555.123 1025.9ZM590.418 1100.2C582.485 1100.2 576.651 1097.9 572.918 1093.3C569.251 1088.63 567.418 1082.5 567.418 1074.9C567.418 1067.23 569.385 1060.9 573.318 1055.9C577.251 1050.9 582.918 1048.4 590.318 1048.4C593.985 1048.4 597.118 1049.1 599.718 1050.5C602.385 1051.83 604.418 1053.67 605.818 1056C608.485 1060.53 609.818 1065.77 609.818 1071.7C609.818 1074.5 609.685 1076.03 609.418 1076.3C609.151 1076.57 608.651 1076.7 607.918 1076.7H578.518C578.851 1081.5 580.018 1085.23 582.018 1087.9C584.085 1090.5 587.618 1091.8 592.618 1091.8C596.285 1091.8 600.051 1090.93 603.918 1089.2C604.851 1088.73 605.518 1089 605.918 1090L607.818 1094.6C608.151 1095.4 607.851 1096.07 606.918 1096.6C602.518 1099 597.018 1100.2 590.418 1100.2ZM578.518 1069.3H599.318C599.451 1060.97 596.185 1056.8 589.518 1056.8C585.585 1056.8 582.785 1058.07 581.118 1060.6C579.518 1063.07 578.651 1065.97 578.518 1069.3Z" fill="black"/>
<path d="M96.3906 117.6V181.8H111.991L167.791 117.6H151.891C148.891 117.6 147.391 116.1 147.391 113.1V97.8C147.391 94.8 148.891 93.3 151.891 93.3H213.091C216.091 93.3 217.591 94.8 217.591 97.8V113.7C217.591 116.7 216.091 118.2 213.091 118.2H197.791L138.391 187.5L198.091 273.3H217.591C220.591 273.3 222.091 274.8 222.091 277.8V292.5C222.091 295.5 220.591 297 217.591 297H179.191C176.191 297 173.791 295.8 171.991 293.4L111.691 206.4H96.3906V273.3H112.291C115.291 273.3 116.791 274.8 116.791 277.8V292.5C116.791 295.5 115.291 297 112.291 297H46.8906C43.8906 297 42.3906 295.5 42.3906 292.5V277.8C42.3906 274.8 43.8906 273.3 46.8906 273.3H62.7906V117.6H46.8906C43.8906 117.6 42.3906 116.1 42.3906 113.1V97.8C42.3906 94.8 43.8906 93.3 46.8906 93.3H112.291C115.291 93.3 116.791 94.8 116.791 97.8V113.1C116.791 116.1 115.291 117.6 112.291 117.6H96.3906Z" fill="black"/>
<path d="M366 474.8V560.4H386.8L461.2 474.8H440C436 474.8 434 472.8 434 468.8V448.4C434 444.4 436 442.4 440 442.4H521.6C525.6 442.4 527.6 444.4 527.6 448.4V469.6C527.6 473.6 525.6 475.6 521.6 475.6H501.2L422 568L501.6 682.4H527.6C531.6 682.4 533.6 684.4 533.6 688.4V708C533.6 712 531.6 714 527.6 714H476.4C472.4 714 469.2 712.4 466.8 709.2L386.4 593.2H366V682.4H387.2C391.2 682.4 393.2 684.4 393.2 688.4V708C393.2 712 391.2 714 387.2 714H300C296 714 294 712 294 708V688.4C294 684.4 296 682.4 300 682.4H321.2V474.8H300C296 474.8 294 472.8 294 468.8V448.4C294 444.4 296 442.4 300 442.4H387.2C391.2 442.4 393.2 444.4 393.2 448.4V468.8C393.2 472.8 391.2 474.8 387.2 474.8H366Z" fill="black"/>
<path d="M346.492 352.908L375.155 404.127C406.028 395.024 425.706 396.349 462.794 404.127L491.456 352.909L453.238 380.835L441.377 330L418.974 376.745L396.571 330L384.71 380.834L346.492 352.908Z" fill="#F7081D"/>
<path d="M172.289 342.69C169.846 340.252 166.944 338.318 163.751 336.999C160.558 335.679 157.136 335 153.679 335C150.223 335 146.801 335.679 143.607 336.999C140.414 338.318 137.513 340.252 135.07 342.69L129.999 347.747L124.928 342.69C119.992 337.768 113.298 335.003 106.318 335.003C99.3381 335.003 92.644 337.768 87.7084 342.69C82.7728 347.612 80 354.288 80 361.249C80 368.21 82.7728 374.886 87.7084 379.808L92.7794 384.866L126.468 418.463C128.42 420.409 131.578 420.409 133.529 418.463L167.218 384.866L172.289 379.808C174.734 377.372 176.673 374.478 177.996 371.294C179.319 368.109 180 364.696 180 361.249C180 357.802 179.319 354.389 177.996 351.205C176.673 348.02 174.734 345.127 172.289 342.69Z" fill="#F7081D"/>
<mask id="mask0_1023_4312" style="mask-type:alpha" maskUnits="userSpaceOnUse" x="130" y="335" width="50" height="85">
<rect x="130" y="335" width="50" height="84.9162" fill="#D9D9D9"/>
</mask>
<g mask="url(#mask0_1023_4312)">
<path d="M172.289 342.69C169.846 340.252 166.944 338.318 163.751 336.999C160.558 335.679 157.136 335 153.679 335C150.223 335 146.801 335.679 143.607 336.999C140.414 338.318 137.513 340.252 135.07 342.69L129.999 347.747L124.928 342.69C119.992 337.768 113.298 335.003 106.318 335.003C99.3381 335.003 92.644 337.768 87.7084 342.69C82.7728 347.612 80 354.288 80 361.249C80 368.21 82.7728 374.886 87.7084 379.808L92.7794 384.866L126.468 418.463C128.42 420.409 131.578 420.409 133.529 418.463L167.218 384.866L172.289 379.808C174.734 377.372 176.673 374.478 177.996 371.294C179.319 368.109 180 364.696 180 361.249C180 357.802 179.319 354.389 177.996 351.205C176.673 348.02 174.734 345.127 172.289 342.69Z" fill="#DC1021"/>
</g>
</svg>
